X:889
T:Gubbstöt
T:efter Pelle Fors
O:Vikbolandet, Östergötland
S:efter Pelle Fors
B:Låtar efter Pelle Fors
R:Gubbstöt
Z:Björn Ek 2009-01-01
M:3/4
L:1/8
K:C
%
|:c2 G>^F G2|A2 F>E F2|D>E F>G A>c|e2 c>B c2|
c2 G>^F G2|A2 F>E F2|DE FG AB|c2 c4:|
%
|:A>^G A2 c2|!trill!c2 B>G E2|e3 d B>d|c>d c>B A2|
(c/d/c/B/)c2 e2|e2 d>B G2|(G/A/G/^F/) G2 e>d|c2 c4:|
%
|:C>E G2 c2|!trill!c>BB3 A|G2 G>f e>d|e2 c>B c2|
C>E G2 c2|!trill!c>BB3 A|G2 G>f e>d|c2 c4:|
%
(:musicend:)

(:music:)
